X: 42009
T: Walsh's Fancy
R: reel
M: 4/4
K: Gmajor
dd|:BedB A2BA|GEAG EAGE|DB,z2 DEGA|BGz2 Acz2|
BedB A2BA|GEAG EAGE|DB,z2 DEGA|1 (3BcdAB G4:|2 (3BcdAB G3B||
|:dedB cBAB|GABG Az(3EFG|DGBG dGBG|cBAG EAAB|
[c3D3]d ed(3Bcd|[e3A3]f gdBG|DGBG DGBe|1 dBAB G3B:|2 dBAB G4||

